X: 28892
T: Mystery, The
R: reel
M: 4/4
K: Gmajor
K: Gmaj
egdB [A3D3]B|~G3B A2 Bd|(3ege dB [A2D2]BA|GEDE G2 Bd|
egdB [A3D3]B|~G3B A2 Bd|egdB [A2D2]BA|GEDE G3A||
BG~G2 BGED|BGAB GED2|[A2E2]AG [A3E3]A|BA (3Bcd gedc|
BG~G2 BGED|B ~G3 BGED|EAAG [A3E3]A|BA (3Bcd gedB||
~G3E DEGB|dGBG AGED|~G3 E DEGD|GBdB A2 BA|
~G3E DEGB|d2BG AGED|~G3 E DEGD|GBdB A2 Bd||
gede g2bg|egde gede|gede g2bg|egde g2ge|
gede g2bg|egde gede|~g3e a2ba|geeg b2ag||

